res/skins/Tango/buttons/btn_mic_section.svg

<?xml version="1.0" encoding="UTF-8" standalone="no"?>
<!-- Created with Inkscape (http://www.inkscape.org/) -->

<svg
   xmlns:dc="http://purl.org/dc/elements/1.1/"
   xmlns:cc="http://creativecommons.org/ns#"
   xmlns:rdf="http://www.w3.org/1999/02/22-rdf-syntax-ns#"
   xmlns:svg="http://www.w3.org/2000/svg"
   xmlns="http://www.w3.org/2000/svg"
   version="1.1"
   width="22"
   height="32"
   id="svg10071">
  <metadata
     id="metadata10081">
    <rdf:RDF>
      <cc:Work
         rdf:about="">
        <dc:format>image/svg+xml</dc:format>
        <dc:type
           rdf:resource="http://purl.org/dc/dcmitype/StillImage" />
        <dc:title></dc:title>
      </cc:Work>
    </rdf:RDF>
  </metadata>
  <defs
     id="defs10079" />
  <g
     transform="matrix(-1,0,0,1,21.500196,0)"
     id="g10073"
     style="fill:#d2d2d2">
    <path
       d="M 15.900134,3.489678 C 13.663266,2.4661735 11.026349,3.4474845 10.00284,5.684363 9.5723829,6.625126 9.4904621,7.6400895 9.7139329,8.5738313 L 16.097277,11.494604 C 16.949935,11.053257 17.6644,10.327721 18.094857,9.3869583 19.118366,7.1500798 18.137002,4.5131825 15.900134,3.489678 z M 9.828646,9.3030399 3.0000041,27.251979 6.3528716,28.786122 15.47049,11.884531 9.828646,9.3030399 z m 1.965342,3.1606141 c 0.428095,0.195879 0.61584,0.69912 0.419706,1.127771 L 11.026196,16.1867 c -0.196134,0.428651 -0.699677,0.615585 -1.1277712,0.419705 -0.4280946,-0.195879 -0.6158399,-0.69912 -0.4197056,-1.127771 l 1.1874978,-2.595275 c 0.196134,-0.428651 0.699677,-0.615585 1.127771,-0.419705 z"
       id="path10075" />
  </g>
</svg>

<!-- Created with Inkscape (http://www.inkscape.org/) -->
<svg id="svg10071" width="22" height="32" version="1.1" xmlns="http://www.w3.org/2000/svg"><g id="g10073" transform="matrix(-1 0 0 1 21.5 0)" fill="#d2d2d2"><path id="path10075" d="m15.9 3.4897c-2.2369-1.0235-4.8738-0.042194-5.8973 2.1947-0.43046 0.94076-0.51238 1.9557-0.28891 2.8895l6.3833 2.9208c0.85266-0.44135 1.5671-1.1669 1.9976-2.1076 1.0235-2.2369 0.042145-4.8738-2.1947-5.8973zm-6.0715 5.8134-6.8286 17.949 3.3529 1.5341 9.1176-16.902-5.6418-2.5815zm1.9653 3.1606c0.4281 0.19588 0.61584 0.69912 0.41971 1.1278l-1.1875 2.5953c-0.19613 0.42865-0.69968 0.61558-1.1278 0.4197-0.42809-0.19588-0.61584-0.69912-0.41971-1.1278l1.1875-2.5953c0.19613-0.42865 0.69968-0.61558 1.1278-0.4197z"/></g></svg>
